X:198
T:Ausberg Waltz. CJF.198
R:Waltz
S:C.J.Fox MS, 1829/33, Beverley,E.Yorks.
B:Kidson Coll.Mitchell Lib.M1805
O:England
A:East Yorkshire
Z:vmp.P J Headford 2000 & 2008
M:3/8
L:1/16
Q:3/8=45
K:C
“tr”g>e c’2 a>f|”tr”g>e c2 e>g|fdBdce|”tr”d>B G2 e>f|!
“tr”g>e c’2 “tr”a>f|”tr”g>f c2 (eg)|(fdBG) (A<B)|c4h:|!
|:e>c|d>B G2 f>d|e>d c2″tr”g2|(^fgabc’a)|”tr”g4e>c|!
d>B G2 f>d|”tr”e>d c2g2|(^fac’agf)|(gag” D.C”fef)|]

